X: 16262
T: There was a Lad and a Lass in a Kilogie
%R: air, minuet, waltz
B: James Oswald "The Caledonian Pocket Companion" v.1 b.6 p.26 #2 (and top 7 staffs of p.27)
S: https://ia800501.us.archive.org/18/items/caledonianpocket01rugg/caledonianpocket01rugg_bw.pdf
Z: 2020 John Chambers <jc:trillian.mit.edu>
M: 3/4
L: 1/8
K: G
|: "_Slow"\
G2G2B2 | {B}A2A2B2 | G2(GA) (Bc) | d4g2 |\
G2G2(G/A/B) | A2(Ac)(BA) | (GFG)ABc | d4(d/e/f) |
g2(ed)(cB) | A2(ba)(gf) | g2{e}d2(cB) | g3ab2 |\
e2(ge)(dB) | d2A2B2 | G3A (Bc) | d4g2 :|
|:\
GDGBAG | ADAcBA | GFGABc | d/g/f/e/ d/e/d/c/ B/c/B/A/ |\
G2DBAG | "p.27" A2DcBA | (GFG)ABc | d4(d/e/f) |
(gfg)dBG | A2(ba)(gf) | (3(gba) (3(gfe) (3(dcB) | g3a (3(bag) |\
e>f (3(gfe) (3(dcB) | a2A2B2 | G2(G/F/G/A/) (B/A/B/c/) | d4 {ef}g2 :|
|:\
GDB2(c/B/A/G/) | ADc2(d/c/B/A/) | GDBGdB | g/b/a/g/ f/g/f/e/ d/e/d/c/ |\
BD GB2(A/G/) | AD Ac2(B/A/) | (3(GBA) (3(AcB) (3(Bed) |
d4(e/g/f/a/) |\
gbdgBg | Ac'bagf | g(e/g/) dBAG | g3a{ga}b2 |\
e>f (3(gec) (3(dBG) | a2AcBA | (GF)(GA)(Bc) | d4g2 :|
